message-reply-text-outline.svg

<svg  viewBox="0 0 24 24" fill="currentColor"><path  d="M9 11H18V13H9V11M18 7H6V9H18V7M22 4V22L18 18H4C2.9 18 2 17.11 2 16V4C2 2.9 2.9 2 4 2H20C21.1 2 22 2.89 22 4M20 4H4V16H18.83L20 17.17V4Z"/></svg>

<svg fill="currentColor" viewBox="0 0 24 24"><path d="M9 11h9v2H9zm9-4H6v2h12zm4-3v18l-4-4H4a2 2 0 0 1-2-2V4c0-1.1.9-2 2-2h16a2 2 0 0 1 2 2m-2 0H4v12h14.83L20 17.17z"/></svg>
